img/profileicons/dribbble.svg

<?xml version="1.0" encoding="utf-8"?>
<!-- Generator: Adobe Illustrator 24.0.3, SVG Export Plug-In . SVG Version: 6.00 Build 0)  -->
<svg version="1.1" id="Layer_1" xmlns="http://www.w3.org/2000/svg" xmlns:xlink="http://www.w3.org/1999/xlink" x="0px" y="0px"
	 viewBox="0 0 784 1224" style="enable-background:new 0 0 784 1224;" xml:space="preserve">
<style type="text/css">
	.st0{fill:#454D59;}
</style>
<g>
	<g>
		<path id="SVGID_1_" class="st0" d="M392,1003.5C175.9,1003.5,0,827.9,0,612s175.9-391.5,392-391.5S784,396.1,784,612
			S608.2,1003.5,392,1003.5L392,1003.5z M722.6,665.6C711.1,662,619,634.5,514,651.3c43.8,120.2,61.6,218.1,65,238.4
			C654.2,839,707.7,758.6,722.6,665.6L722.6,665.6z M522.8,920.3c-5-29.3-24.4-131.6-71.4-253.6c-0.7,0.2-1.5,0.5-2.2,0.7
			C260.3,733.2,192.5,864,186.5,876.3c56.8,44.2,128.1,70.6,205.5,70.6C438.4,946.9,482.6,937.4,522.8,920.3L522.8,920.3z
			 M143.2,836.1c7.6-13,99.5-164.9,272.2-220.7c4.4-1.4,8.8-2.7,13.2-4c-8.4-19-17.6-38-27.1-56.7c-167.2,50-329.5,47.9-344.1,47.6
			c-0.1,3.4-0.2,6.8-0.2,10.2C57.2,698.4,89.8,776.8,143.2,836.1L143.2,836.1z M64.2,544c15,0.2,152.9,0.8,309.5-40.7
			c-55.4-98.5-115.2-181.3-124-193.4C156,354,86,440.3,64.2,544L64.2,544z M313.5,287.4c9.3,12.4,70.1,95.1,124.9,195.8
			C557.5,438.6,607.9,371,614,362.4c-59.1-52.4-136.9-84.3-222-84.3C365,278.1,338.7,281.4,313.5,287.4L313.5,287.4z M651.2,401.1
			c-7.1,9.5-63.2,81.4-187,131.8c7.8,15.9,15.3,32.1,22.2,48.4c2.5,5.8,4.9,11.5,7.2,17.3c111.4-14,222.1,8.4,233.1,10.8
			C726.1,530.4,697.8,458,651.2,401.1L651.2,401.1z"/>
	</g>
</g>
</svg>

<?xml version="1.0" encoding="UTF-8" standalone="no"?>
<!DOCTYPE svg PUBLIC "-//W3C//DTD SVG 1.1//EN" "http://www.w3.org/Graphics/SVG/1.1/DTD/svg11.dtd">
<svg width="100%" height="100%" viewBox="0 0 784 783" version="1.1" xmlns="http://www.w3.org/2000/svg" xmlns:xlink="http://www.w3.org/1999/xlink" xml:space="preserve" xmlns:serif="http://www.serif.com/" style="fill-rule:evenodd;clip-rule:evenodd;stroke-linejoin:round;stroke-miterlimit:2;">
    <g transform="matrix(1,0,0,1,0,-220.5)">
        <g>
            <path id="SVGID_1_" d="M392,1003.5C175.9,1003.5 0,827.9 0,612C0,396.1 175.9,220.5 392,220.5C608.1,220.5 784,396.1 784,612C784,827.9 608.2,1003.5 392,1003.5ZM722.6,665.6C711.1,662 619,634.5 514,651.3C557.8,771.5 575.6,869.4 579,889.7C654.2,839 707.7,758.6 722.6,665.6ZM522.8,920.3C517.8,891 498.4,788.7 451.4,666.7C450.7,666.9 449.9,667.2 449.2,667.4C260.3,733.2 192.5,864 186.5,876.3C243.3,920.5 314.6,946.9 392,946.9C438.4,946.9 482.6,937.4 522.8,920.3ZM143.2,836.1C150.8,823.1 242.7,671.2 415.4,615.4C419.8,614 424.2,612.7 428.6,611.4C420.2,592.4 411,573.4 401.5,554.7C234.3,604.7 72,602.6 57.4,602.3C57.3,605.7 57.2,609.1 57.2,612.5C57.2,698.4 89.8,776.8 143.2,836.1ZM64.2,544C79.2,544.2 217.1,544.8 373.7,503.3C318.3,404.8 258.5,322 249.7,309.9C156,354 86,440.3 64.2,544ZM313.5,287.4C322.8,299.8 383.6,382.5 438.4,483.2C557.5,438.6 607.9,371 614,362.4C554.9,310 477.1,278.1 392,278.1C365,278.1 338.7,281.4 313.5,287.4ZM651.2,401.1C644.1,410.6 588,482.5 464.2,532.9C472,548.8 479.5,565 486.4,581.3C488.9,587.1 491.3,592.8 493.6,598.6C605,584.6 715.7,607 726.7,609.4C726.1,530.4 697.8,458 651.2,401.1Z" style="fill:white;fill-rule:nonzero;"/>
        </g>
    </g>
</svg>
